; generated by Slic3r 1.1.7 on 2015-04-12 at 11:20:51

; perimeters extrusion width = 0.50mm
; infill extrusion width = 0.52mm
; solid infill extrusion width = 0.52mm
; top infill extrusion width = 0.52mm

G21 ; set units to millimeters
M107
M104 S235 ; set temperature
G28 ; home all axes
G1 Z5 F5000 ; lift nozzle

M109 S235 ; wait for temperature to be reached
G90 ; use absolute coordinates
G92 E0
M82 ; use absolute distances for extrusion
G1 F1800.000 E-1.00000
G92 E0
G1 Z0.500 F7800.000
G1 X49.650 Y50.654 F7800.000
G1 E1.00000 F1800.000
G1 X51.412 Y49.115 E1.14774 F1080.000
G1 X53.587 Y48.254 E1.29548
G1 X55.000 Y48.107 E1.38516
G1 X145.000 Y48.107 E7.06826
G1 X147.306 Y48.504 E7.21600
G1 X149.346 Y49.650 E7.36374 F1080.000
G1 X150.885 Y51.412 E7.51148
G1 X151.746 Y53.587 E7.65923
G1 X151.893 Y55.000 E7.74891
G1 X151.893 Y145.000 E13.43200
G1 X151.496 Y147.306 E13.57975
G1 X150.350 Y149.346 E13.72749
G1 X148.588 Y150.885 E13.87523
G1 X146.413 Y151.746 E14.02297
G1 X145.000 Y151.893 E14.11265
G1 X55.000 Y151.893 E19.79575
G1 X52.694 Y151.496 E19.94349
G1 X50.654 Y150.350 E20.09123
G1 X49.115 Y148.588 E20.23897
G1 X48.254 Y146.413 E20.38671
G1 X48.107 Y145.000 E20.47639
G1 X48.107 Y55.000 E26.15949
G1 X48.504 Y52.694 E26.30723
G1 X49.613 Y50.720 E26.45024
G1 F1800.000 E25.45024
G92 E0
G1 X142.715 Y142.715 F7800.000
G1 E1.00000 F1800.000
G1 X57.285 Y142.715 E6.39447 F1170.000
G1 X57.285 Y57.285 E11.78895
G1 X142.715 Y57.285 E17.18342
G1 X142.715 Y142.640 E22.57316
G1 X143.607 Y143.607 F7800.000
G1 X56.393 Y143.607 E28.08037 F1170.000
G1 X56.393 Y56.393 E33.58758
G1 X143.607 Y56.393 E39.09480
G1 X143.607 Y143.532 E44.59727
G1 X144.500 Y144.500 F7800.000
G1 X55.500 Y144.500 E50.21723 F819.000
G1 X55.500 Y55.500 E55.83718
G1 X144.500 Y55.500 E61.45713
G1 X144.500 Y144.425 E67.07235
G1 X144.067 Y144.250 F7800.000
G1 X57.913 Y142.047 F7800.000
G1 X57.953 Y142.087 E67.07592 F1080.000
G1 X59.218 Y142.087 E67.15581
G1 X57.913 Y140.782 E67.27237
G1 X57.913 Y139.517 E67.35226
G1 X60.483 Y142.087 E67.58180
G1 X61.748 Y142.087 E67.66169
G1 X57.913 Y138.252 E68.00421
G1 X57.913 Y136.987 E68.08410
G1 X63.013 Y142.087 E68.53960
G1 X64.279 Y142.087 E68.61949
G1 X57.913 Y135.721 E69.18798
G1 X57.913 Y134.456 E69.26787
G1 X65.544 Y142.087 E69.94934
G1 X66.809 Y142.087 E70.02923
G1 X57.913 Y133.191 E70.82368
G1 X57.913 Y131.926 E70.90357
G1 X68.074 Y142.087 E71.81100
G1 X69.339 Y142.087 E71.89089
G1 X57.913 Y130.661 E72.91131
G1 X57.913 Y129.396 E72.99120
G1 X70.604 Y142.087 E74.12460
G1 X71.870 Y142.087 E74.20449
G1 X57.913 Y128.130 E75.45087
G1 X57.913 Y126.865 E75.53076
G1 X73.135 Y142.087 E76.89013
G1 X74.400 Y142.087 E76.97002
G1 X57.913 Y125.600 E78.44236
G1 X57.913 Y124.335 E78.52225
G1 X75.665 Y142.087 E80.10758
G1 X76.930 Y142.087 E80.18747
G1 X57.913 Y123.070 E81.88579
G1 X57.913 Y121.804 E81.96568
G1 X78.196 Y142.087 E83.77697
G1 X79.461 Y142.087 E83.85686
G1 X57.913 Y120.539 E85.78114
G1 X57.913 Y119.274 E85.86103
G1 X80.726 Y142.087 E87.89829
G1 X81.991 Y142.087 E87.97818
G1 X57.913 Y118.009 E90.12843
G1 X57.913 Y116.744 E90.20832
G1 X83.256 Y142.087 E92.47154
G1 X84.521 Y142.087 E92.55143
G1 X57.913 Y115.479 E94.92764
G1 X57.913 Y114.213 E95.00753
G1 X85.787 Y142.087 E97.49672
G1 X87.052 Y142.087 E97.57661
G1 X57.913 Y112.948 E100.17879
G1 X57.913 Y111.683 E100.25868
G1 X88.317 Y142.087 E102.97383
G1 X89.582 Y142.087 E103.05373
G1 X57.913 Y110.418 E105.88186
G1 X57.913 Y109.153 E105.96176
G1 X90.847 Y142.087 E108.90288
G1 X92.113 Y142.087 E108.98277
G1 X57.913 Y107.887 E112.03687
G1 X57.913 Y106.622 E112.11676
G1 X93.378 Y142.087 E115.28385
G1 X94.643 Y142.087 E115.36374
G1 X57.913 Y105.357 E118.64381
G1 X57.913 Y104.092 E118.72370
G1 X95.908 Y142.087 E122.11675
G1 X97.173 Y142.087 E122.19664
G1 X57.913 Y102.827 E125.70268
G1 X57.913 Y101.561 E125.78257
G1 X98.439 Y142.087 E129.40159
G1 X99.704 Y142.087 E129.48148
G1 X57.913 Y100.296 E133.21348
G1 X57.913 Y99.031 E133.29337
G1 X100.969 Y142.087 E137.13835
G1 X102.234 Y142.087 E137.21824
G1 X57.913 Y97.766 E141.17621
G1 X57.913 Y96.501 E141.25610
G1 X103.499 Y142.087 E145.32705
G1 X104.764 Y142.087 E145.40694
G1 X57.913 Y95.236 E149.59087
G1 X57.913 Y93.970 E149.67076
G1 X106.030 Y142.087 E153.96768
G1 X107.295 Y142.087 E154.04757
G1 X57.913 Y92.705 E158.45746
G1 X57.913 Y91.440 E158.53735
G1 X108.560 Y142.087 E163.06023
G1 X109.825 Y142.087 E163.14012
G1 X57.913 Y90.175 E167.77598
G1 X57.913 Y88.910 E167.85588
G1 X111.090 Y142.087 E172.60472
G1 X112.356 Y142.087 E172.68461
G1 X57.913 Y87.644 E177.54644
G1 X57.913 Y86.379 E177.62633
G1 X113.621 Y142.087 E182.60114
G1 X114.886 Y142.087 E182.68103
G1 X57.913 Y85.114 E187.76882
G1 X57.913 Y83.849 E187.84871
G1 X116.151 Y142.087 E193.04949
G1 X117.416 Y142.087 E193.12938
G1 X57.913 Y82.584 E198.44314
G1 X57.913 Y81.319 E198.52303
G1 X118.681 Y142.087 E203.94977
G1 X119.947 Y142.087 E204.02966
G1 X57.913 Y80.053 E209.56938
G1 X57.913 Y78.788 E209.64927
G1 X121.212 Y142.087 E215.30198
G1 X122.477 Y142.087 E215.38187
G1 X57.913 Y77.523 E221.14756
G1 X57.913 Y76.258 E221.22745
G1 X123.742 Y142.087 E227.10612
G1 X125.007 Y142.087 E227.18601
G1 X57.913 Y74.993 E233.17767
G1 X57.913 Y73.727 E233.25756
G1 X126.273 Y142.087 E239.36219
G1 X127.538 Y142.087 E239.44208
G1 X57.913 Y72.462 E245.65970
G1 X57.913 Y71.197 E245.73959
G1 X128.803 Y142.087 E252.07020
G1 X130.068 Y142.087 E252.15009
G1 X57.913 Y69.932 E258.59367
G1 X57.913 Y68.667 E258.67356
G1 X131.333 Y142.087 E265.23013
G1 X132.599 Y142.087 E265.31002
G1 X57.913 Y67.401 E271.97957
G1 X57.913 Y66.136 E272.05946
G1 X133.864 Y142.087 E278.84199
G1 X135.129 Y142.087 E278.92188
G1 X57.913 Y64.871 E285.81740
G1 X57.913 Y63.606 E285.89729
G1 X136.394 Y142.087 E292.90579
G1 X137.659 Y142.087 E292.98568
G1 X57.913 Y62.341 E300.10716
G1 X57.913 Y61.076 E300.18705
G1 X138.924 Y142.087 E307.42151
G1 X140.190 Y142.087 E307.50141
G1 X57.913 Y59.810 E314.84885
G1 X57.913 Y58.545 E314.92874
G1 X141.455 Y142.087 E322.38917
G1 X142.087 Y141.455 E322.44566
G1 X58.545 Y57.913 E329.90609
G1 X59.810 Y57.913 E329.98598
G1 X142.087 Y140.190 E337.33343
G1 X142.087 Y138.924 E337.41332
G1 X61.076 Y57.913 E344.64778
G1 X62.341 Y57.913 E344.72767
G1 X142.087 Y137.659 E351.84915
G1 X142.087 Y136.394 E351.92904
G1 X63.606 Y57.913 E358.93754
G1 X64.871 Y57.913 E359.01743
G1 X142.087 Y135.129 E365.91295
G1 X142.087 Y133.864 E365.99284
G1 X66.136 Y57.913 E372.77537
G1 X67.401 Y57.913 E372.85526
G1 X142.087 Y132.599 E379.52481
G1 X142.087 Y131.333 E379.60470
G1 X68.667 Y57.913 E386.16127
G1 X69.932 Y57.913 E386.24116
G1 X142.087 Y130.068 E392.68475
G1 X142.087 Y128.803 E392.76464
G1 X71.197 Y57.913 E399.09524
G1 X72.462 Y57.913 E399.17513
G1 X142.087 Y127.538 E405.39275
G1 X142.087 Y126.273 E405.47264
G1 X73.727 Y57.913 E411.57728
G1 X74.993 Y57.913 E411.65717
G1 X142.087 Y125.007 E417.64882
G1 X142.087 Y123.742 E417.72871
G1 X76.258 Y57.913 E423.60738
G1 X77.523 Y57.913 E423.68728
G1 X142.087 Y122.477 E429.45296
G1 X142.087 Y121.212 E429.53285
G1 X78.788 Y57.913 E435.18556
G1 X80.053 Y57.913 E435.26545
G1 X142.087 Y119.947 E440.80517
G1 X142.087 Y118.681 E440.88507
G1 X81.319 Y57.913 E446.31181
G1 X82.584 Y57.913 E446.39170
G1 X142.087 Y117.416 E451.70545
G1 X142.087 Y116.151 E451.78535
G1 X83.849 Y57.913 E456.98612
G1 X85.114 Y57.913 E457.06601
G1 X142.087 Y114.886 E462.15380
G1 X142.087 Y113.621 E462.23370
G1 X86.379 Y57.913 E467.20850
G1 X87.644 Y57.913 E467.28840
G1 X142.087 Y112.356 E472.15022
G1 X142.087 Y111.090 E472.23011
G1 X88.910 Y57.913 E476.97896
G1 X90.175 Y57.913 E477.05885
G1 X142.087 Y109.825 E481.69471
G1 X142.087 Y108.560 E481.77460
G1 X91.440 Y57.913 E486.29748
G1 X92.705 Y57.913 E486.37737
G1 X142.087 Y107.295 E490.78727
G1 X142.087 Y106.030 E490.86716
G1 X93.970 Y57.913 E495.16407
G1 X95.236 Y57.913 E495.24396
G1 X142.087 Y104.764 E499.42789
G1 X142.087 Y103.499 E499.50779
G1 X96.501 Y57.913 E503.57873
G1 X97.766 Y57.913 E503.65862
G1 X142.087 Y102.234 E507.61659
G1 X142.087 Y100.969 E507.69648
G1 X99.031 Y57.913 E511.54146
G1 X100.296 Y57.913 E511.62136
G1 X142.087 Y99.704 E515.35336
G1 X142.087 Y98.439 E515.43325
G1 X101.561 Y57.913 E519.05226
G1 X102.827 Y57.913 E519.13216
G1 X142.087 Y97.173 E522.63819
G1 X142.087 Y95.908 E522.71808
G1 X104.092 Y57.913 E526.11113
G1 X105.357 Y57.913 E526.19102
G1 X142.087 Y94.643 E529.47109
G1 X142.087 Y93.378 E529.55099
G1 X106.622 Y57.913 E532.71807
G1 X107.887 Y57.913 E532.79796
G1 X142.087 Y92.113 E535.85207
G1 X142.087 Y90.847 E535.93196
G1 X109.153 Y57.913 E538.87308
G1 X110.418 Y57.913 E538.95297
G1 X142.087 Y89.582 E541.78111
G1 X142.087 Y88.317 E541.86100
G1 X111.683 Y57.913 E544.57616
G1 X112.948 Y57.913 E544.65605
G1 X142.087 Y87.052 E547.25822
G1 X142.087 Y85.787 E547.33811
G1 X114.213 Y57.913 E549.82730
G1 X115.479 Y57.913 E549.90719
G1 X142.087 Y84.521 E552.28340
G1 X142.087 Y83.256 E552.36329
G1 X116.744 Y57.913 E554.62652
G1 X118.009 Y57.913 E554.70641
G1 X142.087 Y81.991 E556.85665
G1 X142.087 Y80.726 E556.93654
G1 X119.274 Y57.913 E558.97380
G1 X120.539 Y57.913 E559.05369
G1 X142.087 Y79.461 E560.97797
G1 X142.087 Y78.196 E561.05786
G1 X121.804 Y57.913 E562.86916
G1 X123.070 Y57.913 E562.94905
G1 X142.087 Y76.930 E564.64736
G1 X142.087 Y75.665 E564.72725
G1 X124.335 Y57.913 E566.31258
G1 X125.600 Y57.913 E566.39247
G1 X142.087 Y74.400 E567.86482
G1 X142.087 Y73.135 E567.94471
G1 X126.865 Y57.913 E569.30407
G1 X128.130 Y57.913 E569.38397
G1 X142.087 Y71.870 E570.63035
G1 X142.087 Y70.604 E570.71024
G1 X129.396 Y57.913 E571.84364
G1 X130.661 Y57.913 E571.92353
G1 X142.087 Y69.339 E572.94394
G1 X142.087 Y68.074 E573.02383
G1 X131.926 Y57.913 E573.93127
G1 X133.191 Y57.913 E574.01116
G1 X142.087 Y66.809 E574.80561
G1 X142.087 Y65.544 E574.88550
G1 X134.456 Y57.913 E575.56697
G1 X135.721 Y57.913 E575.64686
G1 X142.087 Y64.279 E576.21535
G1 X142.087 Y63.013 E576.29524
G1 X136.987 Y57.913 E576.75074
G1 X138.252 Y57.913 E576.83063
G1 X142.087 Y61.748 E577.17315
G1 X142.087 Y60.483 E577.25304
G1 X139.517 Y57.913 E577.48258
G1 X140.782 Y57.913 E577.56247
G1 X142.087 Y59.218 E577.67902
G1 X142.087 Y57.953 E577.75891
G1 X142.047 Y57.913 E577.76249
M104 S230 ; set temperature
G1 F1800.000 E576.76249
G92 E0
G1 Z0.900 F7800.000
G1 X143.750 Y143.750 F7800.000
G1 E1.00000 F1800.000
G1 X56.250 Y143.750 E3.47574 F3900.000
G1 X56.250 Y56.250 E5.95149
G1 X143.750 Y56.250 E8.42723
G1 X143.750 Y143.675 E10.90085
G1 X144.250 Y144.250 F7800.000
G1 X55.750 Y144.250 E13.40489 F3900.000
G1 X55.750 Y55.750 E15.90893
G1 X144.250 Y55.750 E18.41297
G1 X144.250 Y144.175 E20.91488
G1 X144.750 Y144.750 F7800.000
G1 X55.250 Y144.750 E23.44721 F2730.000
G1 X55.250 Y55.250 E25.97955
G1 X144.750 Y55.250 E28.51188
G1 X144.750 Y144.675 E31.04209
G1 X144.317 Y144.500 F7800.000
G1 X143.403 Y143.363 F7800.000
G1 X143.363 Y143.403 E31.04375 F3600.000
G1 X142.628 Y143.403 E31.06537
G1 X143.403 Y142.628 E31.09761
G1 X143.403 Y141.892 E31.11924
G1 X141.892 Y143.403 E31.18206
G1 X141.157 Y143.403 E31.20368
G1 X143.403 Y141.157 E31.29708
G1 X143.403 Y140.422 E31.31870
G1 X140.422 Y143.403 E31.44267
G1 X139.687 Y143.403 E31.46429
G1 X143.403 Y139.687 E31.61885
G1 X143.403 Y138.951 E31.64047
G1 X138.951 Y143.403 E31.82560
G1 X138.216 Y143.403 E31.84722
G1 X143.403 Y138.216 E32.06293
G1 X143.403 Y137.481 E32.08456
G1 X137.481 Y143.403 E32.33084
G1 X136.745 Y143.403 E32.35247
G1 X143.403 Y136.745 E32.62933
G1 X143.403 Y136.010 E32.65095
G1 X136.010 Y143.403 E32.95840
G1 X135.275 Y143.403 E32.98002
G1 X143.403 Y135.275 E33.31804
G1 X143.403 Y134.539 E33.33966
G1 X134.539 Y143.403 E33.70826
G1 X133.804 Y143.403 E33.72988
G1 X143.403 Y133.804 E34.12906
G1 X143.403 Y133.069 E34.15068
G1 X133.069 Y143.403 E34.58044
G1 X132.333 Y143.403 E34.60206
G1 X143.403 Y132.333 E35.06240
G1 X143.403 Y131.598 E35.08402
G1 X131.598 Y143.403 E35.57493
G1 X130.863 Y143.403 E35.59655
G1 X143.403 Y130.863 E36.11804
G1 X143.403 Y130.128 E36.13966
G1 X130.128 Y143.403 E36.69173
G1 X129.392 Y143.403 E36.71335
G1 X143.403 Y129.392 E37.29600
G1 X143.403 Y128.657 E37.31762
G1 X128.657 Y143.403 E37.93085
G1 X127.922 Y143.403 E37.95247
G1 X143.403 Y127.922 E38.59627
G1 X143.403 Y127.186 E38.61789
G1 X127.186 Y143.403 E39.29227
G1 X126.451 Y143.403 E39.31389
G1 X143.403 Y126.451 E40.01885
G1 X143.403 Y125.716 E40.04047
G1 X125.716 Y143.403 E40.77601
G1 X124.980 Y143.403 E40.79763
G1 X143.403 Y124.980 E41.56375
G1 X143.403 Y124.245 E41.58537
G1 X124.245 Y143.403 E42.38206
G1 X123.510 Y143.403 E42.40368
G1 X143.403 Y123.510 E43.23095
G1 X143.403 Y122.775 E43.25257
G1 X122.775 Y143.403 E44.11042
G1 X122.039 Y143.403 E44.13204
G1 X143.403 Y122.039 E45.02047
G1 X143.403 Y121.304 E45.04209
G1 X121.304 Y143.403 E45.96110
G1 X120.569 Y143.403 E45.98272
G1 X143.403 Y120.569 E46.93230
G1 X143.403 Y119.833 E46.95392
G1 X119.833 Y143.403 E47.93408
G1 X119.098 Y143.403 E47.95571
G1 X143.403 Y119.098 E48.96644
G1 X143.403 Y118.363 E48.98807
G1 X118.363 Y143.403 E50.02938
G1 X117.627 Y143.403 E50.05101
G1 X143.403 Y117.627 E51.12290
G1 X143.403 Y116.892 E51.14452
G1 X116.892 Y143.403 E52.24699
G1 X116.157 Y143.403 E52.26862
G1 X143.403 Y116.157 E53.40167
G1 X143.403 Y115.421 E53.42329
G1 X115.421 Y143.403 E54.58692
G1 X114.686 Y143.403 E54.60854
G1 X143.403 Y114.686 E55.80275
G1 X143.403 Y113.951 E55.82437
G1 X113.951 Y143.403 E57.04915
G1 X113.216 Y143.403 E57.07077
G1 X143.403 Y113.216 E58.32614
G1 X143.403 Y112.480 E58.34776
G1 X112.480 Y143.403 E59.63370
G1 X111.745 Y143.403 E59.65532
G1 X143.403 Y111.745 E60.97184
G1 X143.403 Y111.010 E60.99346
G1 X111.010 Y143.403 E62.34056
G1 X110.274 Y143.403 E62.36218
G1 X143.403 Y110.274 E63.73986
G1 X143.403 Y109.539 E63.76148
G1 X109.539 Y143.403 E65.16973
G1 X108.804 Y143.403 E65.19135
G1 X143.403 Y108.804 E66.63018
G1 X143.403 Y108.068 E66.65181
G1 X108.068 Y143.403 E68.12122
G1 X107.333 Y143.403 E68.14284
G1 X143.403 Y107.333 E69.64282
G1 X143.403 Y106.598 E69.66445
G1 X106.598 Y143.403 E71.19501
G1 X105.862 Y143.403 E71.21663
G1 X143.403 Y105.862 E72.77778
G1 X143.403 Y105.127 E72.79940
G1 X105.127 Y143.403 E74.39112
G1 X104.392 Y143.403 E74.41274
G1 X143.403 Y104.392 E76.03504
G1 X143.403 Y103.657 E76.05666
G1 X103.657 Y143.403 E77.70954
G1 X102.921 Y143.403 E77.73116
G1 X143.403 Y102.921 E79.41462
G1 X143.403 Y102.186 E79.43624
G1 X102.186 Y143.403 E81.15027
G1 X101.451 Y143.403 E81.17189
G1 X143.403 Y101.451 E82.91651
G1 X143.403 Y100.715 E82.93813
G1 X100.715 Y143.403 E84.71332
G1 X99.980 Y143.403 E84.73494
G1 X143.403 Y99.980 E86.54071
G1 X143.403 Y99.245 E86.56233
G1 X99.245 Y143.403 E88.39867
G1 X98.509 Y143.403 E88.42030
G1 X143.403 Y98.509 E90.28722
G1 X143.403 Y97.774 E90.30884
G1 X97.774 Y143.403 E92.20634
G1 X97.039 Y143.403 E92.22796
G1 X143.403 Y97.039 E94.15604
G1 X143.403 Y96.303 E94.17767
G1 X96.303 Y143.403 E96.13632
G1 X95.568 Y143.403 E96.15795
G1 X143.403 Y95.568 E98.14718
G1 X143.403 Y94.833 E98.16880
G1 X94.833 Y143.403 E100.18862
G1 X94.098 Y143.403 E100.21024
G1 X143.403 Y94.098 E102.26063
G1 X143.403 Y93.362 E102.28225
G1 X93.362 Y143.403 E104.36322
G1 X92.627 Y143.403 E104.38484
G1 X143.403 Y92.627 E106.49639
G1 X143.403 Y91.892 E106.51801
G1 X91.892 Y143.403 E108.66014
G1 X91.156 Y143.403 E108.68176
G1 X143.403 Y91.156 E110.85446
G1 X143.403 Y90.421 E110.87609
G1 X90.421 Y143.403 E113.07937
G1 X89.686 Y143.403 E113.10099
G1 X143.403 Y89.686 E115.33485
G1 X143.403 Y88.950 E115.35647
G1 X88.950 Y143.403 E117.62091
G1 X88.215 Y143.403 E117.64253
G1 X143.403 Y88.215 E119.93755
G1 X143.403 Y87.480 E119.95917
G1 X87.480 Y143.403 E122.28476
G1 X86.744 Y143.403 E122.30638
G1 X143.403 Y86.744 E124.66256
G1 X143.403 Y86.009 E124.68418
G1 X86.009 Y143.403 E127.07093
G1 X85.274 Y143.403 E127.09255
G1 X143.403 Y85.274 E129.50988
G1 X143.403 Y84.539 E129.53150
G1 X84.539 Y143.403 E131.97941
G1 X83.803 Y143.403 E132.00103
G1 X143.403 Y83.803 E134.47951
G1 X143.403 Y83.068 E134.50113
G1 X83.068 Y143.403 E137.01020
G1 X82.333 Y143.403 E137.03182
G1 X143.403 Y82.333 E139.57146
G1 X143.403 Y81.597 E139.59308
G1 X81.597 Y143.403 E142.16330
