; generated by Slic3r 1.1.7 on 2015-04-12 at 11:22:57

; perimeters extrusion width = 0.50mm
; infill extrusion width = 0.52mm
; solid infill extrusion width = 0.52mm
; top infill extrusion width = 0.52mm

G21 ; set units to millimeters
M107
M104 S235 ; set temperature
G28 ; home all axes
G1 Z5 F5000 ; lift nozzle

G90 ; use absolute coordinates
G92 E0
M82 ; use absolute distances for extrusion
G1 F1800.000 E-1.00000
G92 E0
G1 Z0.500 F7800.000
G1 X83.400 Y84.404 F7800.000
G1 E1.00000 F1800.000
G1 X85.162 Y82.865 E1.14774 F1080.000
G1 X87.337 Y82.004 E1.29548
G1 X88.750 Y81.857 E1.38516
G1 X111.250 Y81.857 E2.80594
G1 X113.556 Y82.254 E2.95368
G1 X115.596 Y83.400 E3.10142 F1080.000
G1 X117.135 Y85.162 E3.24916
G1 X117.996 Y87.337 E3.39690
G1 X118.143 Y88.750 E3.48658
G1 X118.143 Y111.250 E4.90736
G1 X117.746 Y113.556 E5.05510
G1 X116.600 Y115.596 E5.20284
G1 X114.838 Y117.135 E5.35058
G1 X112.663 Y117.996 E5.49832
G1 X111.250 Y118.143 E5.58800
G1 X88.750 Y118.143 E7.00878
G1 X86.444 Y117.746 E7.15652
G1 X84.404 Y116.600 E7.30426
G1 X82.865 Y114.838 E7.45200
G1 X82.004 Y112.663 E7.59974
G1 X81.857 Y111.250 E7.68942
G1 X81.857 Y88.750 E9.11019
G1 X82.254 Y86.444 E9.25794
G1 X83.363 Y84.470 E9.40094
G1 F1800.000 E8.40094
G92 E0
G1 X108.965 Y108.965 F7800.000
G1 E1.00000 F1800.000
G1 X91.035 Y108.965 E2.13215 F1170.000
G1 X91.035 Y91.035 E3.26430
G1 X108.965 Y91.035 E4.39645
G1 X108.965 Y108.890 E5.52386
G1 X109.857 Y109.857 F7800.000
G1 X90.143 Y109.857 E6.76875 F1170.000
G1 X90.143 Y90.143 E8.01364
G1 X109.857 Y90.143 E9.25853
G1 X109.857 Y109.782 E10.49868
G1 X110.750 Y110.750 F7800.000
G1 X89.250 Y110.750 E11.85631 F819.000
G1 X89.250 Y89.250 E13.21394
G1 X110.750 Y89.250 E14.57157
G1 X110.750 Y110.675 E15.92446
G1 X110.317 Y110.500 F7800.000
G1 X91.703 Y108.337 F7800.000
G1 X91.663 Y108.297 E15.92803 F1080.000
G1 X91.663 Y107.018 E16.00883
G1 X92.982 Y108.337 E16.12668
G1 X94.262 Y108.337 E16.20748
G1 X91.663 Y105.738 E16.43959
G1 X91.663 Y104.459 E16.52039
G1 X95.541 Y108.337 E16.86677
G1 X96.821 Y108.337 E16.94758
G1 X91.663 Y103.179 E17.40823
G1 X91.663 Y101.899 E17.48903
G1 X98.101 Y108.337 E18.06395
G1 X99.380 Y108.337 E18.14475
G1 X91.663 Y100.620 E18.83395
G1 X91.663 Y99.340 E18.91475
G1 X100.660 Y108.337 E19.71821
G1 X101.939 Y108.337 E19.79901
G1 X91.663 Y98.061 E20.71674
G1 X91.663 Y96.781 E20.79754
G1 X103.219 Y108.337 E21.82955
G1 X104.499 Y108.337 E21.91035
G1 X91.663 Y95.501 E23.05662
G1 X91.663 Y94.222 E23.13742
G1 X105.778 Y108.337 E24.39797
G1 X107.058 Y108.337 E24.47877
G1 X91.663 Y92.942 E25.85358
G1 X91.683 Y91.683 E25.93313
G1 X108.317 Y108.317 E27.41864
G1 X108.337 Y107.058 E27.49819
G1 X92.942 Y91.663 E28.87300
G1 X94.222 Y91.663 E28.95380
G1 X108.337 Y105.778 E30.21435
G1 X108.337 Y104.499 E30.29515
G1 X95.501 Y91.663 E31.44142
G1 X96.781 Y91.663 E31.52222
G1 X108.337 Y103.219 E32.55422
G1 X108.337 Y101.939 E32.63503
G1 X98.061 Y91.663 E33.55276
G1 X99.340 Y91.663 E33.63356
G1 X108.337 Y100.660 E34.43702
G1 X108.337 Y99.380 E34.51782
G1 X100.620 Y91.663 E35.20702
G1 X101.899 Y91.663 E35.28782
G1 X108.337 Y98.101 E35.86274
G1 X108.337 Y96.821 E35.94354
G1 X103.179 Y91.663 E36.40419
G1 X104.459 Y91.663 E36.48500
G1 X108.337 Y95.541 E36.83138
G1 X108.337 Y94.262 E36.91218
G1 X105.738 Y91.663 E37.14429
G1 X107.018 Y91.663 E37.22509
G1 X108.337 Y92.982 E37.34294
G1 X108.337 Y91.703 E37.42374
G1 X108.297 Y91.663 E37.42731
M106 S255
M104 S230 ; set temperature
G1 F1800.000 E36.42731
G92 E0
G1 Z0.900 F7800.000
G1 X110.000 Y110.000 F7800.000
G1 E1.00000 F1800.000
G1 X90.000 Y110.000 E1.56588 F2528.509
G1 X90.000 Y90.000 E2.13177
G1 X110.000 Y90.000 E2.69765
G1 X110.000 Y109.925 E3.26141
G1 X110.500 Y110.500 F7800.000
G1 X89.500 Y110.500 E3.85559 F2528.509
G1 X89.500 Y89.500 E4.44977
G1 X110.500 Y89.500 E5.04395
G1 X110.500 Y110.425 E5.63601
G1 X111.000 Y111.000 F7800.000
G1 X89.000 Y111.000 E6.25848 F1769.957
G1 X89.000 Y89.000 E6.88095
G1 X111.000 Y89.000 E7.50342
G1 X111.000 Y110.925 E8.12378
G1 X110.567 Y110.750 F7800.000
G1 X109.653 Y109.613 F7800.000
G1 X109.613 Y109.653 E8.12544 F1945.007
G1 X108.872 Y109.653 E8.14723
G1 X109.653 Y108.872 E8.17971
G1 X109.653 Y108.131 E8.20150
G1 X108.131 Y109.653 E8.26479
G1 X107.390 Y109.653 E8.28658
G1 X109.653 Y107.390 E8.38069
G1 X109.653 Y106.649 E8.40248
G1 X106.649 Y109.653 E8.52740
G1 X105.908 Y109.653 E8.54919
G1 X109.653 Y105.908 E8.70493
G1 X109.653 Y105.167 E8.72672
G1 X105.167 Y109.653 E8.91327
G1 X104.426 Y109.653 E8.93506
G1 X109.653 Y104.426 E9.15243
G1 X109.653 Y103.685 E9.17422
G1 X103.685 Y109.653 E9.42241
G1 X102.944 Y109.653 E9.44420
G1 X109.653 Y102.944 E9.72320
G1 X109.653 Y102.203 E9.74499
G1 X102.203 Y109.653 E10.05480
G1 X101.462 Y109.653 E10.07659
G1 X109.653 Y101.462 E10.41722
G1 X109.653 Y100.721 E10.43901
G1 X100.721 Y109.653 E10.81045
G1 X99.980 Y109.653 E10.83224
G1 X109.653 Y99.980 E11.23450
G1 X109.653 Y99.239 E11.25629
G1 X99.239 Y109.653 E11.68937
G1 X98.498 Y109.653 E11.71116
G1 X109.653 Y98.498 E12.17505
G1 X109.653 Y97.757 E12.19684
G1 X97.757 Y109.653 E12.69154
G1 X97.016 Y109.653 E12.71333
G1 X109.653 Y97.016 E13.23885
G1 X109.653 Y96.275 E13.26064
G1 X96.275 Y109.653 E13.81698
G1 X95.534 Y109.653 E13.83877
G1 X109.653 Y95.534 E14.42592
G1 X109.653 Y94.793 E14.44771
G1 X94.793 Y109.653 E15.06567
G1 X94.052 Y109.653 E15.08746
G1 X109.653 Y94.052 E15.73624
G1 X109.653 Y93.311 E15.75803
G1 X93.311 Y109.653 E16.43763
G1 X92.570 Y109.653 E16.45942
G1 X109.653 Y92.570 E17.16983
G1 X109.653 Y91.829 E17.19162
G1 X91.829 Y109.653 E17.93284
G1 X91.088 Y109.653 E17.95463
G1 X109.653 Y91.088 E18.72668
G1 X109.633 Y90.367 E18.74789
G1 X90.367 Y109.633 E19.54908
G1 X90.347 Y108.912 E19.57029
G1 X108.912 Y90.347 E20.34233
G1 X108.171 Y90.347 E20.36412
G1 X90.347 Y108.171 E21.10535
G1 X90.347 Y107.430 E21.12713
G1 X107.430 Y90.347 E21.83755
G1 X106.689 Y90.347 E21.85934
G1 X90.347 Y106.689 E22.53893
G1 X90.347 Y105.948 E22.56072
G1 X105.948 Y90.347 E23.20950
G1 X105.207 Y90.347 E23.23129
G1 X90.347 Y105.207 E23.84926
G1 X90.347 Y104.466 E23.87105
G1 X104.466 Y90.347 E24.45820
G1 X103.725 Y90.347 E24.47999
G1 X90.347 Y103.725 E25.03632
G1 X90.347 Y102.984 E25.05811
G1 X102.984 Y90.347 E25.58363
G1 X102.243 Y90.347 E25.60542
G1 X90.347 Y102.243 E26.10013
G1 X90.347 Y101.502 E26.12192
G1 X101.502 Y90.347 E26.58581
G1 X100.761 Y90.347 E26.60760
G1 X90.347 Y100.761 E27.04067
G1 X90.347 Y100.020 E27.06246
G1 X100.020 Y90.347 E27.46472
G1 X99.279 Y90.347 E27.48651
G1 X90.347 Y99.279 E27.85796
G1 X90.347 Y98.538 E27.87974
G1 X98.538 Y90.347 E28.22037
G1 X97.797 Y90.347 E28.24216
G1 X90.347 Y97.797 E28.55198
G1 X90.347 Y97.056 E28.57377
G1 X97.056 Y90.347 E28.85277
G1 X96.315 Y90.347 E28.87456
G1 X90.347 Y96.315 E29.12274
G1 X90.347 Y95.574 E29.14453
G1 X95.574 Y90.347 E29.36190
G1 X94.833 Y90.347 E29.38369
G1 X90.347 Y94.833 E29.57024
G1 X90.347 Y94.092 E29.59203
G1 X94.092 Y90.347 E29.74777
G1 X93.351 Y90.347 E29.76956
G1 X90.347 Y93.351 E29.89449
G1 X90.347 Y92.610 E29.91628
G1 X92.610 Y90.347 E30.01038
G1 X91.869 Y90.347 E30.03217
G1 X90.347 Y91.869 E30.09547
G1 X90.347 Y91.128 E30.11726
G1 X91.128 Y90.347 E30.14974
G1 X90.387 Y90.347 E30.17153
G1 X90.347 Y90.387 E30.17319
G1 F1800.000 E29.17319
G92 E0
M107
M104 S0 ; turn off temperature
G28 X0  ; home X axis
M84     ; disable motors

; filament used = 74.0mm (0.5cm3)

; avoid_crossing_perimeters = 1
; bed_size = 200,200
; bed_temperature = 0
; bridge_acceleration = 0
; bridge_fan_speed = 100
; bridge_flow_ratio = 1
; brim_width = 0
; complete_objects = 0
; cooling = 1
; default_acceleration = 0
; disable_fan_first_layers = 1
; duplicate_distance = 6
; end_gcode = M104 S0 ; turn off temperature\nG28 X0  ; home X axis\nM84     ; disable motors\n
; external_perimeters_first = 0
; extruder_clearance_height = 20
; extruder_clearance_radius = 20
; extruder_offset = 0x0
; extrusion_axis = E
; extrusion_multiplier = 1
; fan_always_on = 0
; fan_below_layer_time = 60
; filament_diameter = 3
; first_layer_acceleration = 0
; first_layer_bed_temperature = 0
; first_layer_extrusion_width = 200%
; first_layer_speed = 30%
; first_layer_temperature = 235
; g0 = 0
; gcode_arcs = 0
; gcode_comments = 0
; gcode_flavor = reprap
; infill_acceleration = 0
; infill_first = 0
; layer_gcode = 
; max_fan_speed = 100
; min_fan_speed = 35
; min_print_speed = 10
; min_skirt_length = 0
; notes = 
; nozzle_diameter = 0.5
; only_retract_when_crossing_perimeters = 1
; ooze_prevention = 0
; output_filename_format = [input_filename_base].gcode
; perimeter_acceleration = 0
; post_process = 
; print_center = 100,100
; resolution = 0
; retract_before_travel = 2
; retract_layer_change = 1
; retract_length = 1
; retract_length_toolchange = 10
; retract_lift = 0
; retract_restart_extra = 0
; retract_restart_extra_toolchange = 0
; retract_speed = 30
; skirt_distance = 6
; skirt_height = 1
; skirts = 1
; slowdown_below_layer_time = 30
; spiral_vase = 0
; standby_temperature_delta = -5
; start_gcode = G28 ; home all axes\nG1 Z5 F5000 ; lift nozzle\n
; temperature = 230
; threads = 2
; toolchange_gcode = 
; travel_speed = 130
; use_firmware_retraction = 0
; use_relative_e_distances = 0
; vibration_limit = 0
; wipe = 0
; z_offset = 0
; dont_support_bridges = 1
; extrusion_width = 0
; first_layer_height = 0.5
; infill_only_where_needed = 0
; interface_shells = 0
; layer_height = 0.4
; raft_layers = 0
; seam_position = aligned
; support_material = 0
; support_material_angle = 0
; support_material_enforce_layers = 0
; support_material_extruder = 1
; support_material_extrusion_width = 0
; support_material_interface_extruder = 1
; support_material_interface_layers = 3
; support_material_interface_spacing = 0
; support_material_interface_speed = 100%
; support_material_pattern = pillars
; support_material_spacing = 2.5
; support_material_speed = 60
; support_material_threshold = 0
; bottom_solid_layers = 3
; bridge_speed = 60
; external_perimeter_speed = 70%
; extra_perimeters = 1
; fill_angle = 45
; fill_density = 40%
; fill_pattern = honeycomb
; gap_fill_speed = 20
; infill_every_layers = 10
; infill_extruder = 1
; infill_extrusion_width = 0
; infill_speed = 80
; overhangs = 1
; perimeter_extruder = 1
; perimeter_extrusion_width = 0
; perimeter_speed = 65
; perimeters = 3
; small_perimeter_speed = 30
; solid_fill_pattern = rectilinear
; solid_infill_below_area = 70
; solid_infill_every_layers = 0
; solid_infill_extrusion_width = 0
; solid_infill_speed = 60
; thin_walls = 1
; top_infill_extrusion_width = 0
; top_solid_infill_speed = 50
; top_solid_layers = 3
