; generated by Slic3r 1.1.7 on 2015-04-12 at 11:22:27

; perimeters extrusion width = 0.50mm
; infill extrusion width = 0.52mm
; solid infill extrusion width = 0.52mm
; top infill extrusion width = 0.52mm

G21 ; set units to millimeters
M107
M104 S235 ; set temperature
G28 ; home all axes
G1 Z5 F5000 ; lift nozzle

G90 ; use absolute coordinates
G92 E0
M82 ; use absolute distances for extrusion
G1 F1800.000 E-1.00000
G92 E0
G1 Z0.500 F7800.000
G1 X72.150 Y73.154 F7800.000
G1 E1.00000 F1800.000
G1 X73.912 Y71.615 E1.14774 F1080.000
G1 X76.087 Y70.754 E1.29548
G1 X77.500 Y70.607 E1.38516
G1 X122.500 Y70.607 E4.22671
G1 X124.806 Y71.004 E4.37445
G1 X126.846 Y72.150 E4.52219 F1080.000
G1 X128.385 Y73.912 E4.66993
G1 X129.246 Y76.087 E4.81768
G1 X129.393 Y77.500 E4.90736
G1 X129.393 Y122.500 E7.74891
G1 X128.996 Y124.806 E7.89665
G1 X127.850 Y126.846 E8.04439
G1 X126.088 Y128.385 E8.19213
G1 X123.913 Y129.246 E8.33987
G1 X122.500 Y129.393 E8.42955
G1 X77.500 Y129.393 E11.27110
G1 X75.194 Y128.996 E11.41884
G1 X73.154 Y127.850 E11.56658
G1 X71.615 Y126.088 E11.71432
G1 X70.754 Y123.913 E11.86206
G1 X70.607 Y122.500 E11.95174
G1 X70.607 Y77.500 E14.79329
G1 X71.004 Y75.194 E14.94103
G1 X72.113 Y73.220 E15.08404
G1 F1800.000 E14.08404
G92 E0
G1 X120.215 Y120.215 F7800.000
G1 E1.00000 F1800.000
G1 X79.785 Y120.215 E3.55292 F1170.000
G1 X79.785 Y79.785 E6.10585
G1 X120.215 Y79.785 E8.65877
G1 X120.215 Y120.140 E11.20696
G1 X121.107 Y121.107 F7800.000
G1 X78.893 Y121.107 E13.87262 F1170.000
G1 X78.893 Y78.893 E16.53829
G1 X121.107 Y78.893 E19.20395
G1 X121.107 Y121.032 E21.86488
G1 X122.000 Y122.000 F7800.000
G1 X78.000 Y122.000 E24.64328 F819.000
G1 X78.000 Y78.000 E27.42169
G1 X122.000 Y78.000 E30.20009
G1 X122.000 Y121.925 E32.97376
G1 X121.567 Y121.750 F7800.000
G1 X80.413 Y119.547 F7800.000
G1 X80.453 Y119.587 E32.97733 F1080.000
G1 X81.736 Y119.587 E33.05835
G1 X80.413 Y118.264 E33.17651
G1 X80.413 Y116.981 E33.25753
G1 X83.019 Y119.587 E33.49027
G1 X84.302 Y119.587 E33.57129
G1 X80.413 Y115.698 E33.91861
G1 X80.413 Y114.415 E33.99964
G1 X85.585 Y119.587 E34.46154
G1 X86.868 Y119.587 E34.54256
G1 X80.413 Y113.132 E35.11905
G1 X80.413 Y111.849 E35.20008
G1 X88.151 Y119.587 E35.89115
G1 X89.434 Y119.587 E35.97217
G1 X80.413 Y110.566 E36.77782
G1 X80.413 Y109.283 E36.85885
G1 X90.717 Y119.587 E37.77909
G1 X92.001 Y119.587 E37.86011
G1 X80.413 Y107.999 E38.89493
G1 X80.413 Y106.716 E38.97595
G1 X93.284 Y119.587 E40.12536
G1 X94.567 Y119.587 E40.20638
G1 X80.413 Y105.433 E41.47037
G1 X80.413 Y104.150 E41.55139
G1 X95.850 Y119.587 E42.92996
G1 X97.133 Y119.587 E43.01098
G1 X80.413 Y102.867 E44.50414
G1 X80.413 Y101.584 E44.58516
G1 X98.416 Y119.587 E46.19290
G1 X99.699 Y119.587 E46.27392
G1 X80.413 Y100.301 E47.99624
G1 X80.413 Y99.018 E48.07727
G1 X100.982 Y119.587 E49.91417
G1 X102.265 Y119.587 E49.99519
G1 X80.413 Y97.735 E51.94668
G1 X80.413 Y96.451 E52.02770
G1 X103.549 Y119.587 E54.09378
G1 X104.832 Y119.587 E54.17480
G1 X80.413 Y95.168 E56.35545
G1 X80.413 Y93.885 E56.43648
G1 X106.115 Y119.587 E58.73171
G1 X107.398 Y119.587 E58.81274
G1 X80.413 Y92.602 E61.22256
G1 X80.413 Y91.319 E61.30358
G1 X108.681 Y119.587 E63.82798
G1 X109.964 Y119.587 E63.90901
G1 X80.413 Y90.036 E66.54799
G1 X80.413 Y88.753 E66.62902
G1 X111.247 Y119.587 E69.38259
G1 X112.530 Y119.587 E69.46361
G1 X80.413 Y87.470 E72.33177
G1 X80.413 Y86.187 E72.41279
G1 X113.813 Y119.587 E75.39553
G1 X115.097 Y119.587 E75.47655
G1 X80.413 Y84.903 E78.57387
G1 X80.413 Y83.620 E78.65489
G1 X116.380 Y119.587 E81.86680
G1 X117.663 Y119.587 E81.94782
G1 X80.413 Y82.337 E85.27431
G1 X80.413 Y81.054 E85.35533
G1 X118.946 Y119.587 E88.79640
G1 X119.587 Y118.946 E88.85369
G1 X81.054 Y80.413 E92.29476
G1 X82.337 Y80.413 E92.37578
G1 X119.587 Y117.663 E95.70227
G1 X119.587 Y116.380 E95.78329
G1 X83.620 Y80.413 E98.99520
G1 X84.903 Y80.413 E99.07622
G1 X119.587 Y115.097 E102.17354
G1 X119.587 Y113.813 E102.25456
G1 X86.187 Y80.413 E105.23730
G1 X87.470 Y80.413 E105.31832
G1 X119.587 Y112.530 E108.18648
G1 X119.587 Y111.247 E108.26750
G1 X88.753 Y80.413 E111.02107
G1 X90.036 Y80.413 E111.10210
G1 X119.587 Y109.964 E113.74108
G1 X119.587 Y108.681 E113.82211
G1 X91.319 Y80.413 E116.34651
G1 X92.602 Y80.413 E116.42753
G1 X119.587 Y107.398 E118.83735
G1 X119.587 Y106.115 E118.91838
G1 X93.885 Y80.413 E121.21361
G1 X95.168 Y80.413 E121.29464
G1 X119.587 Y104.832 E123.47529
G1 X119.587 Y103.549 E123.55631
G1 X96.451 Y80.413 E125.62239
G1 X97.735 Y80.413 E125.70341
G1 X119.587 Y102.265 E127.65490
G1 X119.587 Y100.982 E127.73592
G1 X99.018 Y80.413 E129.57282
G1 X100.301 Y80.413 E129.65385
G1 X119.587 Y99.699 E131.37617
G1 X119.587 Y98.416 E131.45719
G1 X101.584 Y80.413 E133.06493
G1 X102.867 Y80.413 E133.14595
G1 X119.587 Y97.133 E134.63911
G1 X119.587 Y95.850 E134.72013
G1 X104.150 Y80.413 E136.09870
G1 X105.433 Y80.413 E136.17972
G1 X119.587 Y94.567 E137.44371
G1 X119.587 Y93.284 E137.52473
G1 X106.716 Y80.413 E138.67414
G1 X107.999 Y80.413 E138.75516
G1 X119.587 Y92.001 E139.78998
G1 X119.587 Y90.717 E139.87101
G1 X109.283 Y80.413 E140.79124
G1 X110.566 Y80.413 E140.87227
G1 X119.587 Y89.434 E141.67792
G1 X119.587 Y88.151 E141.75894
G1 X111.849 Y80.413 E142.45002
G1 X113.132 Y80.413 E142.53104
G1 X119.587 Y86.868 E143.10753
G1 X119.587 Y85.585 E143.18855
G1 X114.415 Y80.413 E143.65045
G1 X115.698 Y80.413 E143.73148
G1 X119.587 Y84.302 E144.07880
G1 X119.587 Y83.019 E144.15982
G1 X116.981 Y80.413 E144.39256
G1 X118.264 Y80.413 E144.47358
G1 X119.587 Y81.736 E144.59174
G1 X119.587 Y80.453 E144.67276
G1 X119.547 Y80.413 E144.67633
M104 S230 ; set temperature
G1 F1800.000 E143.67633
G92 E0
G1 Z0.900 F7800.000
G1 X121.250 Y121.250 F7800.000
G1 E1.00000 F1800.000
G1 X78.750 Y121.250 E2.20250 F3900.000
G1 X78.750 Y78.750 E3.40501
G1 X121.250 Y78.750 E4.60751
G1 X121.250 Y121.175 E5.80789
G1 X121.750 Y121.750 F7800.000
G1 X78.250 Y121.750 E7.03869 F3900.000
G1 X78.250 Y78.250 E8.26949
G1 X121.750 Y78.250 E9.50029
G1 X121.750 Y121.675 E10.72896
G1 X122.250 Y122.250 F7800.000
G1 X77.750 Y122.250 E11.98806 F2730.000
G1 X77.750 Y77.750 E13.24715
G1 X122.250 Y77.750 E14.50624
G1 X122.250 Y122.175 E15.76321
G1 X121.817 Y122.000 F7800.000
G1 X120.903 Y120.863 F7800.000
G1 X120.863 Y120.903 E15.76488 F3600.000
G1 X120.124 Y120.903 E15.78661
G1 X120.903 Y120.124 E15.81902
G1 X120.903 Y119.385 E15.84075
G1 X119.385 Y120.903 E15.90390
G1 X118.645 Y120.903 E15.92564
G1 X120.903 Y118.645 E16.01952
G1 X120.903 Y117.906 E16.04126
G1 X117.906 Y120.903 E16.16589
G1 X117.167 Y120.903 E16.18763
G1 X120.903 Y117.167 E16.34299
G1 X120.903 Y116.428 E16.36473
G1 X116.428 Y120.903 E16.55084
G1 X115.689 Y120.903 E16.57258
G1 X120.903 Y115.689 E16.78943
G1 X120.903 Y114.949 E16.81117
G1 X114.949 Y120.903 E17.05876
G1 X114.210 Y120.903 E17.08049
G1 X120.903 Y114.210 E17.35883
G1 X120.903 Y113.471 E17.38056
G1 X113.471 Y120.903 E17.68964
G1 X112.732 Y120.903 E17.71137
G1 X120.903 Y112.732 E18.05119
G1 X120.903 Y111.992 E18.07292
G1 X111.992 Y120.903 E18.44348
G1 X111.253 Y120.903 E18.46522
G1 X120.903 Y111.253 E18.86651
G1 X120.903 Y110.514 E18.88825
G1 X110.514 Y120.903 E19.32029
G1 X109.775 Y120.903 E19.34202
G1 X120.903 Y109.775 E19.80480
G1 X120.903 Y109.036 E19.82654
G1 X109.036 Y120.903 E20.32006
G1 X108.296 Y120.903 E20.34180
G1 X120.903 Y108.296 E20.86606
G1 X120.903 Y107.557 E20.88779
G1 X107.557 Y120.903 E21.44279
G1 X106.818 Y120.903 E21.46453
G1 X120.903 Y106.818 E22.05027
G1 X120.903 Y106.079 E22.07201
G1 X106.079 Y120.903 E22.68849
G1 X105.339 Y120.903 E22.71023
G1 X120.903 Y105.339 E23.35746
G1 X120.903 Y104.600 E23.37919
G1 X104.600 Y120.903 E24.05716
G1 X103.861 Y120.903 E24.07889
G1 X120.903 Y103.861 E24.78760
G1 X120.903 Y103.122 E24.80934
G1 X103.122 Y120.903 E25.54878
G1 X102.382 Y120.903 E25.57052
G1 X120.903 Y102.382 E26.34071
G1 X120.903 Y101.643 E26.36245
G1 X101.643 Y120.903 E27.16338
G1 X100.904 Y120.903 E27.18511
G1 X120.903 Y100.904 E28.01678
G1 X120.903 Y100.165 E28.03852
G1 X100.165 Y120.903 E28.90093
G1 X99.426 Y120.903 E28.92267
G1 X120.903 Y99.426 E29.81582
G1 X120.903 Y98.686 E29.83756
G1 X98.686 Y120.903 E30.76145
G1 X97.947 Y120.903 E30.78319
G1 X120.903 Y97.947 E31.73782
G1 X120.903 Y97.208 E31.75956
G1 X97.208 Y120.903 E32.74493
G1 X96.469 Y120.903 E32.76667
G1 X120.903 Y96.469 E33.78279
G1 X120.903 Y95.729 E33.80452
G1 X95.729 Y120.903 E34.85138
G1 X94.990 Y120.903 E34.87312
G1 X120.903 Y94.990 E35.95071
G1 X120.903 Y94.251 E35.97245
G1 X94.251 Y120.903 E37.08079
G1 X93.512 Y120.903 E37.10253
G1 X120.903 Y93.512 E38.24161
G1 X120.903 Y92.773 E38.26334
G1 X92.773 Y120.903 E39.43317
G1 X92.033 Y120.903 E39.45490
G1 X120.903 Y92.033 E40.65546
G1 X120.903 Y91.294 E40.67720
G1 X91.294 Y120.903 E41.90850
G1 X90.555 Y120.903 E41.93024
G1 X120.903 Y90.555 E43.19228
G1 X120.903 Y89.816 E43.21402
G1 X89.816 Y120.903 E44.50681
G1 X89.076 Y120.903 E44.52854
G1 X120.903 Y89.076 E45.85207
G1 X120.903 Y88.337 E45.87381
G1 X88.337 Y120.903 E47.22807
G1 X87.598 Y120.903 E47.24981
G1 X120.903 Y87.598 E48.63482
G1 X120.903 Y86.859 E48.65656
G1 X86.859 Y120.903 E50.07230
G1 X86.120 Y120.903 E50.09404
G1 X120.903 Y86.120 E51.54053
G1 X120.903 Y85.380 E51.56227
G1 X85.380 Y120.903 E53.03950
G1 X84.641 Y120.903 E53.06124
G1 X120.903 Y84.641 E54.56921
G1 X120.903 Y83.902 E54.59094
G1 X83.902 Y120.903 E56.12966
G1 X83.163 Y120.903 E56.15139
G1 X120.903 Y83.163 E57.72085
G1 X120.903 Y82.423 E57.74258
G1 X82.423 Y120.903 E59.34278
G1 X81.684 Y120.903 E59.36452
G1 X120.903 Y81.684 E60.99545
G1 X120.903 Y80.945 E61.01719
G1 X80.945 Y120.903 E62.67886
G1 X80.206 Y120.903 E62.70060
G1 X120.903 Y80.206 E64.39302
G1 X120.903 Y79.467 E64.41476
G1 X79.467 Y120.903 E66.13791
G1 X79.097 Y120.534 E66.15328
G1 X120.534 Y79.097 E67.87644
G1 X119.794 Y79.097 E67.89818
G1 X79.097 Y119.794 E69.59060
G1 X79.097 Y119.055 E69.61234
G1 X119.055 Y79.097 E71.27401
G1 X118.316 Y79.097 E71.29575
G1 X79.097 Y118.316 E72.92668
G1 X79.097 Y117.577 E72.94842
G1 X117.577 Y79.097 E74.54862
G1 X116.837 Y79.097 E74.57035
G1 X79.097 Y116.837 E76.13981
G1 X79.097 Y116.098 E76.16154
G1 X116.098 Y79.097 E77.70026
G1 X115.359 Y79.097 E77.72199
G1 X79.097 Y115.359 E79.22996
G1 X79.097 Y114.620 E79.25170
G1 X114.620 Y79.097 E80.72893
G1 X113.880 Y79.097 E80.75067
G1 X79.097 Y113.880 E82.19716
G1 X79.097 Y113.141 E82.21890
G1 X113.141 Y79.097 E83.63464
G1 X112.402 Y79.097 E83.65638
G1 X79.097 Y112.402 E85.04139
G1 X79.097 Y111.663 E85.06313
G1 X111.663 Y79.097 E86.41739
G1 X110.924 Y79.097 E86.43913
G1 X79.097 Y110.924 E87.76266
G1 X79.097 Y110.184 E87.78439
G1 X110.184 Y79.097 E89.07718
G1 X109.445 Y79.097 E89.09892
G1 X79.097 Y109.445 E90.36096
G1 X79.097 Y108.706 E90.38270
G1 X108.706 Y79.097 E91.61400
G1 X107.967 Y79.097 E91.63574
G1 X79.097 Y107.967 E92.83630
G1 X79.097 Y107.227 E92.85803
G1 X107.227 Y79.097 E94.02786
G1 X106.488 Y79.097 E94.04959
G1 X79.097 Y106.488 E95.18867
G1 X79.097 Y105.749 E95.21041
G1 X105.749 Y79.097 E96.31875
G1 X105.010 Y79.097 E96.34049
G1 X79.097 Y105.010 E97.41808
G1 X79.097 Y104.271 E97.43982
G1 X104.271 Y79.097 E98.48668
G1 X103.531 Y79.097 E98.50841
G1 X79.097 Y103.531 E99.52453
G1 X79.097 Y102.792 E99.54627
G1 X102.792 Y79.097 E100.53164
G1 X102.053 Y79.097 E100.55338
G1 X79.097 Y102.053 E101.50801
G1 X79.097 Y101.314 E101.52975
G1 X101.314 Y79.097 E102.45364
G1 X100.574 Y79.097 E102.47538
G1 X79.097 Y100.574 E103.36853
G1 X79.097 Y99.835 E103.39027
G1 X99.835 Y79.097 E104.25268
G1 X99.096 Y79.097 E104.27442
G1 X79.097 Y99.096 E105.10609
G1 X79.097 Y98.357 E105.12782
G1 X98.357 Y79.097 E105.92875
G1 X97.618 Y79.097 E105.95049
G1 X79.097 Y97.618 E106.72068
G1 X79.097 Y96.878 E106.74242
G1 X96.878 Y79.097 E107.48186
G1 X96.139 Y79.097 E107.50360
G1 X79.097 Y96.139 E108.21231
G1 X79.097 Y95.400 E108.23404
G1 X95.400 Y79.097 E108.91201
G1 X94.661 Y79.097 E108.93374
G1 X79.097 Y94.661 E109.58097
G1 X79.097 Y93.921 E109.60271
G1 X93.921 Y79.097 E110.21919
G1 X93.182 Y79.097 E110.24093
G1 X79.097 Y93.182 E110.82667
G1 X79.097 Y92.443 E110.84841
G1 X92.443 Y79.097 E111.40341
G1 X91.704 Y79.097 E111.42514
G1 X79.097 Y91.704 E111.94940
G1 X79.097 Y90.964 E111.97114
G1 X90.964 Y79.097 E112.46466
G1 X90.225 Y79.097 E112.48640
G1 X79.097 Y90.225 E112.94918
G1 X79.097 Y89.486 E112.97091
G1 X89.486 Y79.097 E113.40295
G1 X88.747 Y79.097 E113.42469
G1 X79.097 Y88.747 E113.82598
G1 X79.097 Y88.008 E113.84772
G1 X88.008 Y79.097 E114.21827
G1 X87.268 Y79.097 E114.24001
G1 X79.097 Y87.268 E114.57983
G1 X79.097 Y86.529 E114.60156
G1 X86.529 Y79.097 E114.91064
G1 X85.790 Y79.097 E114.93237
G1 X79.097 Y85.790 E115.21071
G1 X79.097 Y85.051 E115.23244
G1 X85.051 Y79.097 E115.48003
G1 X84.311 Y79.097 E115.50177
G1 X79.097 Y84.311 E115.71862
G1 X79.097 Y83.572 E115.74036
G1 X83.572 Y79.097 E115.92647
G1 X82.833 Y79.097 E115.94821
G1 X79.097 Y82.833 E116.10357
G1 X79.097 Y82.094 E116.12531
G1 X82.094 Y79.097 E116.24994
G1 X81.355 Y79.097 E116.27168
G1 X79.097 Y81.355 E116.36556
G1 X79.097 Y80.615 E116.38730
G1 X80.615 Y79.097 E116.45044
G1 X79.876 Y79.097 E116.47218
G1 X79.097 Y79.876 E116.50459
G1 X79.097 Y79.137 E116.52632
G1 X79.137 Y79.097 E116.52799
G1 F1800.000 E115.52799
G92 E0
G1 Z1.300 F7800.000
G1 X121.250 Y121.250 F7800.000
G1 E1.00000 F1800.000
G1 X78.750 Y121.250 E2.20250 F3900.000
G1 X78.750 Y78.750 E3.40501
G1 X121.250 Y78.750 E4.60751
G1 X121.250 Y121.175 E5.80789
G1 X121.750 Y121.750 F7800.000
G1 X78.250 Y121.750 E7.03869 F3900.000
G1 X78.250 Y78.250 E8.26949
G1 X121.750 Y78.250 E9.50029
G1 X121.750 Y121.675 E10.72896
G1 X122.250 Y122.250 F7800.000
G1 X77.750 Y122.250 E11.98806 F2730.000
G1 X77.750 Y77.750 E13.24715
G1 X122.250 Y77.750 E14.50624
G1 X122.250 Y122.175 E15.76321
G1 X121.817 Y122.000 F7800.000
G1 X79.097 Y120.863 F7800.000
G1 X79.137 Y120.903 E15.76488 F3600.000
G1 X79.876 Y120.903 E15.78661
G1 X79.097 Y120.124 E15.81902
G1 X79.097 Y119.385 E15.84075
G1 X80.615 Y120.903 E15.90390
G1 X81.355 Y120.903 E15.92564
G1 X79.097 Y118.645 E16.01952
G1 X79.097 Y117.906 E16.04126
G1 X82.094 Y120.903 E16.16589
G1 X82.833 Y120.903 E16.18763
G1 X79.097 Y117.167 E16.34299
G1 X79.097 Y116.428 E16.36473
G1 X83.572 Y120.903 E16.55084
G1 X84.311 Y120.903 E16.57258
G1 X79.097 Y115.689 E16.78943
G1 X79.097 Y114.949 E16.81116
G1 X85.051 Y120.903 E17.05876
G1 X85.790 Y120.903 E17.08049
G1 X79.097 Y114.210 E17.35883
G1 X79.097 Y113.471 E17.38056
G1 X86.529 Y120.903 E17.68964
G1 X87.268 Y120.903 E17.71137
G1 X79.097 Y112.732 E18.05119
G1 X79.097 Y111.992 E18.07292
G1 X88.008 Y120.903 E18.44348
G1 X88.747 Y120.903 E18.46522
G1 X79.097 Y111.253 E18.86651
G1 X79.097 Y110.514 E18.88825
G1 X89.486 Y120.903 E19.32029
G1 X90.225 Y120.903 E19.34202
G1 X79.097 Y109.775 E19.80480
G1 X79.097 Y109.036 E19.82654
G1 X90.964 Y120.903 E20.32006
G1 X91.704 Y120.903 E20.34180
G1 X79.097 Y108.296 E20.86606
G1 X79.097 Y107.557 E20.88779
G1 X92.443 Y120.903 E21.44279
G1 X93.182 Y120.903 E21.46453
G1 X79.097 Y106.818 E22.05027
G1 X79.097 Y106.079 E22.07201
G1 X93.921 Y120.903 E22.68849
G1 X94.661 Y120.903 E22.71023
G1 X79.097 Y105.339 E23.35745
G1 X79.097 Y104.600 E23.37919
G1 X95.400 Y120.903 E24.05716
G1 X96.139 Y120.903 E24.07889
G1 X79.097 Y103.861 E24.78760
G1 X79.097 Y103.122 E24.80934
G1 X96.878 Y120.903 E25.54878
G1 X97.618 Y120.903 E25.57052
G1 X79.097 Y102.382 E26.34071
G1 X79.097 Y101.643 E26.36245
G1 X98.357 Y120.903 E27.16338
G1 X99.096 Y120.903 E27.18511
G1 X79.097 Y100.904 E28.01678
G1 X79.097 Y100.165 E28.03852
G1 X99.835 Y120.903 E28.90093
G1 X100.574 Y120.903 E28.92267
G1 X79.097 Y99.426 E29.81582
G1 X79.097 Y98.686 E29.83756
G1 X101.314 Y120.903 E30.76145
G1 X102.053 Y120.903 E30.78319
G1 X79.097 Y97.947 E31.73782
G1 X79.097 Y97.208 E31.75956
G1 X102.792 Y120.903 E32.74493
G1 X103.531 Y120.903 E32.76667
G1 X79.097 Y96.469 E33.78279
G1 X79.097 Y95.729 E33.80452
G1 X104.271 Y120.903 E34.85138
G1 X105.010 Y120.903 E34.87312
G1 X79.097 Y94.990 E35.95071
G1 X79.097 Y94.251 E35.97245
G1 X105.749 Y120.903 E37.08079
G1 X106.488 Y120.903 E37.10253
G1 X79.097 Y93.512 E38.24161
G1 X79.097 Y92.773 E38.26334
